packages/icon/src/svg/report.icon.svg

<svg viewBox="0 0 24 24" xmlns="http://www.w3.org/2000/svg"><path d="M22 11c0-.551-.448-1-1-1h-4c-.552 0-1 .449-1 1v9h-1v-4c0-.551-.448-1-1-1h-4c-.552 0-1 .449-1 1v4H8v-7c0-.551-.448-1-1-1H3c-.552 0-1 .449-1 1v7H0v2h24v-2h-2v-9zM4 20v-6h2v6H4zm7 0v-3h2v3h-2zm7 0v-8h2v8h-2zM5 9c-1.104 0-2-.896-2-2s.896-2 2-2c1.102 0 1.994.891 1.999 1.992l4.002 2.286C11.296 9.106 11.635 9 12 9c.178 0 .347.031.511.074l4.563-4.562C17.031 4.349 17 4.179 17 4c0-1.104.896-2 2-2s2 .896 2 2-.896 2-2 2c-.178 0-.348-.029-.512-.073l-4.562 4.562c.043.165.074.333.074.511 0 1.104-.896 2-2 2-1.102 0-1.994-.89-1.999-1.99L5.999 8.724C5.704 8.896 5.365 9 5 9z" /></svg>

<?xml version="1.0" encoding="UTF-8"?>
<svg width="24px" height="24px" viewBox="0 0 24 24" version="1.1" xmlns="http://www.w3.org/2000/svg" xmlns:xlink="http://www.w3.org/1999/xlink">
    <!-- Generator: Sketch 46.1 (44463) - http://www.bohemiancoding.com/sketch -->
    <title>Icon/report.icon</title>
    <desc>Created with Sketch.</desc>
    <defs>
        <path d="M22,11 C22,10.449 21.552,10 21,10 L17,10 C16.448,10 16,10.449 16,11 L16,20 L15,20 L15,16 C15,15.449 14.552,15 14,15 L10,15 C9.448,15 9,15.449 9,16 L9,20 L8,20 L8,13 C8,12.449 7.552,12 7,12 L3,12 C2.448,12 2,12.449 2,13 L2,20 L0,20 L0,22 L24,22 L24,20 L22,20 L22,11 Z M4,20 L4,14 L6,14 L6,20 L4,20 Z M11,20 L11,17 L13,17 L13,20 L11,20 Z M18,20 L18,12 L20,12 L20,20 L18,20 Z M5,9 C3.896,9 3,8.104 3,7 C3,5.896 3.896,5 5,5 C6.102,5 6.994,5.891 6.999,6.992 L11.001,9.278 C11.296,9.106 11.635,9 12,9 C12.178,9 12.347,9.031 12.511,9.074 L17.074,4.512 C17.031,4.349 17,4.179 17,4 C17,2.896 17.896,2 19,2 C20.104,2 21,2.896 21,4 C21,5.104 20.104,6 19,6 C18.822,6 18.652,5.971 18.488,5.927 L13.926,10.489 C13.969,10.654 14,10.822 14,11 C14,12.104 13.104,13 12,13 C10.898,13 10.006,12.11 10.001,11.01 L5.999,8.724 C5.704,8.896 5.365,9 5,9 Z" id="path-1"></path>
    </defs>
    <g id="Symbols" stroke="none" stroke-width="1" fill="none" fill-rule="evenodd">
        <g id="Icon/report">
            <mask id="mask-2" fill="white">
                <use xlink:href="#path-1"></use>
            </mask>
            <use id="Shape" fill="#000000" fill-rule="nonzero" xlink:href="#path-1"></use>
            <g id="Color/Neutral/White" mask="url(#mask-2)" fill="#FFFFFF">
                <rect id="222222-Fill" x="0" y="0" width="24" height="24"></rect>
            </g>
        </g>
    </g>
</svg>
